X: 35413
T: Round The
R: hornpipe
M: 4/4
K: Bminor
|:B2F2 dcBA|ABcd e2ce|fgfd efec|dedB cAA2|
B2F2 dcBA|ABcd e2ce|fgfd efec|dBBA B4:|
|:fgfd f2f2|efec e2e2|dedB cdcA|Bcde fgfe|
fgfd f2f2|efec e2e2|dedB cdcA|FBBA B4:|

